packages/elements/bolt-icon/src/svgs/molecule.svg

<svg enable-background="new 0 0 32 32" viewBox="0 0 32 32" xmlns="http://www.w3.org/2000/svg"><path d="m29 12.5-3.2-5.5 3.2-5.5c.3-.5.1-1.1-.3-1.3-.3-.2-.6-.2-.8-.2-.2.1-.5.2-.6.5l-3.2 5.5h-5.8l-3.2-5.5c-.3-.4-.9-.6-1.3-.4-.2.1-.4.3-.4.6-.1.2 0 .5.1.7l3.1 5.6-2.9 5h-5.8l-3.2-5.5c-.2-.2-.4-.4-.6-.4-.3-.1-.5-.1-.8 0-.4.3-.6.9-.3 1.4l3.2 5.5-3.2 5.5c-.2.3-.2.7 0 1l3.2 5.5-3.2 5.6c-.3.5-.1 1.1.3 1.3.5.2 1 .1 1.3-.4l3.3-5.5h5.8l3.2 5.5.3.3c.1.1.2.1.3.1h.2.2c.1 0 .2-.1.3-.1.2-.1.4-.3.5-.6s0-.5-.1-.7l-3.2-5.5 2.9-5.1h5.8l3.2 5.6c.2.5.8.7 1.3.5s.7-.8.5-1.3c0-.1-.1-.1-.1-.1l-3.2-5.6 3.2-5.5c.1-.3.1-.7 0-1zm-12.4 6.5-2.9 5.1h-5.8l-3-5.1 2.9-5.1h5.8zm10.4-6-2.9 5.1h-5.8l-2.9-5 2.9-5.1h5.8z" fill="#151619"/></svg>

<?xml version="1.0" encoding="utf-8"?>
<!-- Generator: Adobe Illustrator 25.2.0, SVG Export Plug-In . SVG Version: 6.00 Build 0)  -->
<svg version="1.1" id="Layer_1" xmlns="http://www.w3.org/2000/svg" xmlns:xlink="http://www.w3.org/1999/xlink" x="0px" y="0px"
	 viewBox="0 0 32 32" style="enable-background:new 0 0 32 32;" xml:space="preserve">
<style type="text/css">
	.st0{fill:#151619;}
</style>
<path class="st0" d="M29,12.5L25.8,7L29,1.5c0.3-0.5,0.1-1.1-0.3-1.3c0,0,0,0,0,0C28.4,0,28.1,0,27.9,0c-0.2,0.1-0.5,0.2-0.6,0.5
	L24.1,6h-5.8l-3.2-5.5c-0.3-0.4-0.9-0.6-1.3-0.4c-0.2,0.1-0.4,0.3-0.4,0.6c-0.1,0.2,0,0.5,0.1,0.7L16.6,7L13.7,12H7.9L4.7,6.5
	C4.5,6.3,4.3,6.1,4.1,6.1C3.8,6,3.6,6,3.3,6.1C2.9,6.4,2.7,7,3,7.5c0,0,0,0,0,0L6.2,13L3,18.5c-0.2,0.3-0.2,0.7,0,1L6.2,25L3,30.6
	c-0.3,0.5-0.1,1.1,0.3,1.3c0,0,0,0,0,0c0.5,0.2,1,0.1,1.3-0.4L7.9,26h5.8l3.2,5.5c0.1,0.1,0.2,0.2,0.3,0.3c0.1,0.1,0.2,0.1,0.3,0.1
	c0.1,0,0.2,0,0.2,0h0.2c0.1,0,0.2-0.1,0.3-0.1c0.2-0.1,0.4-0.3,0.5-0.6c0.1-0.3,0-0.5-0.1-0.7L15.4,25l2.9-5.1h5.8l3.2,5.6
	c0.2,0.5,0.8,0.7,1.3,0.5c0.5-0.2,0.7-0.8,0.5-1.3c0-0.1-0.1-0.1-0.1-0.1L25.8,19l3.2-5.5C29.1,13.2,29.1,12.8,29,12.5z M16.6,19
	l-2.9,5.1H7.9L4.9,19l2.9-5.1h5.8L16.6,19z M27,13l-2.9,5.1h-5.8l-2.9-5L18.3,8h5.8L27,13z"/>
</svg>
